src/resources/icons/src/all/star-outline.svg

<svg
  width="48"
  height="48"
  viewBox="0 0 48 48"
  xmlns="http://www.w3.org/2000/svg"
>
<path
    d="M23.94 10.045L27.72 18.0792L28.41 19.5182L30 19.758L38.73 21.1071L32.31 27.6724L31.26 28.7516L31.5 30.2505L32.97 39.334L25.41 35.137L23.97 34.3276L22.53 35.137L14.97 39.334L16.44 30.2505L16.68 28.7516L15.63 27.6724L9.21 21.1071L17.94 19.758L19.53 19.5182L20.22 18.0792L24 10.045M24 3L17.52 16.8201L3 19.0385L13.5 29.8009L11.01 45L24 37.8351L36.99 45L34.5 29.8009L45 19.0385L30.48 16.8201L23.94 3H24Z"
    fill-rule="evenodd"
  />
</svg>

<?xml version="1.0" encoding="UTF-8" ?>
<svg id="a" xmlns="http://www.w3.org/2000/svg" viewBox="0 0 48 48"><path
    d="m24,10.06l3.77,8.04.68,1.45,1.58.24,8.74,1.33-6.42,6.58-1.06,1.08.24,1.49,1.48,9.1-7.57-4.18-1.45-.8-1.45.8-7.57,4.18,1.48-9.1.24-1.49-1.06-1.08-6.42-6.58,8.74-1.33,1.58-.24.68-1.45,3.77-8.04m0-7.06l-6.49,13.82-14.51,2.22,10.5,10.76-2.48,15.19,12.98-7.17,12.98,7.17-2.48-15.19,10.5-10.76-14.51-2.22-6.49-13.82h0Z"
    fill-rule="evenodd"
  /></svg>
